X:1
T:Viva speranza
T:Viva speranza
T:Gio.Girolamo Kapsperger
C:Gio.Girolamo Kapsperger
%%score 1 { ( 2 4 ) | 3 }
L:1/8
Q:1/4=120
M:3/2
K:C
V:1 treble nm="Soprano" snm="S"
V:2 treble nm="BC" snm="BC"
V:4 treble 
V:3 bass 
V:1
 c4 c4 d4 | e4 e4 c4 | c8 B4 | c8 c4 |[M:4/4] z2 Bc d>d d>e | e3 d cB A>B | G2 G2 (3g2 g2 f2 | %7
w: Vi- va spe-|ran- za del|mio mo-|ri- re,|deh ri- mi- ra la mia|pe- na, ne piu'in- cru- de-|li- re, la pe- na|
w: Ge- lo'a- ni-|ma- to da'|miei de-|si- ri,|deh ni- mi- ra la mia|fiam- ma, che de gl'oc- ch'in-|spi- ri, la fiam- ma|
w: Mar- mo'in fo-|ca- to da'i|miei so-|spi- ri,|deh ri- mi- ra le mia|vi- ta, cru- da'e pur t'ag-|gi- ri, la vi- ta|
 fe e>d d3 c | ^G2 G2 z2 B2 | B3 B B4 | A8 ::[M:3/4] c2 c2 d2 | G2 A2 B2 | c3 d c2 | %14
w: che lu- sin- g'a- mor- te'il|co- re, che|gia- sen' mo-|re.|E se cru-|de- le mi-|ran- do non|
w: che nel giel m'a- vam- pa'il|co- re, che|gia sen' mo-|re.|E se di|giac- cio per|sde- gn'o per|
w: che di pia- no'i- non- da'il|co- re, che|gia sen' mo-|re.|E se pur|go- di qual|pri- ma go-|
[M:4/4] B2 BB d3 e | c3 B A4 | Gggg f3 e | edfe d4 | cedc B2 Bc | d3 c B4 | A6 c2 | B6 cd | %22
w: vuo- i, far dol- c'i|sde- gni tuo-|i, nom- min- gar' al men|ch'io os- pi- v'in se-|no, del tuo ri- go- re, l'af-|flit- to co-|re, che|gia _ _|
w: gio- co, non cu- r'i|mio gran fo-|co, co- me ne- gar mi|puoi ch'ai rag- gi tuo-|i, be- va l'ar- do- re, l'ac-|ce- so co-|re, che|gia _ _|
w: de- i, far tri- st'i|gior- ni mie-|i, for- se ne- gar po-|trai ch'ai va- ghi ra-|i, * tuo splen- do- re, m'ab-|ba- gl'il co-|re, che|gia _ _|
 e3 A A4 | G8 |] %24
w: _ sen' mo-|re.|
w: _ sen' mo-|re.|
w: _ sen' mo-|re.|
V:2
 [EGc]4 [Ec]4 [Gd]4 | [Ge]4 [GB]4 [Ec]4 | [FAc]4 [Ec]4 [GB]4 | [EGc]12 |[M:4/4] [DB]4 [Bd]4 | %5
 [DB]4 [Bd]4 | [DB]4 [Bd]4 | [Bd]4 B2 [FAc]2 | [^GB]4 z2 [GB]2 | [Be]2 [^Fd]2 [^GBe]2 [Ad][Ge] | %10
 [EA^c]8 ::[M:3/4] [CFA]2 [B,G]2 [FA]2 | [CEG]2 [EA]2 [DG]2 | [Ec]6 |[M:4/4] [GB]4 [DG]4 | %15
 [EG]4 [D^F]4 | [DB]4 [Ec]2 [GB]2 | [EG]2 [Ac]2 [DB]4 | [EGc]4 [GB]4 | [FAd]4 [GB]4 | %20
 [Ec]2 [GB]2 [EG]2 [CA]2 | [GB]2 [DA]2 [DB]2 [GB]2 | [Gc]2 [Bd]2 ed c2 | [DGB]8 |] %24
V:3
 C,4 A,,4 B,,4 | C,4 E,4 A,4 | F,4 G,6 G,2 | C,8 C,4 |[M:4/4] G,8 | G,8 | G,8 | G,6 D,2 | %8
 E,4 E,4- | E,2 D,2 E,4 | A,,8 ::[M:3/4] F,2 E,2 D,2 | C,4 B,,2 | A,,4 A,,2 |[M:4/4] E,4 B,,4 | %15
 C,4 D,4 | G,,4 A,,2 B,,2 | C,2 F,2 G,4 | C,4 E,4 | D,4 E,4 | A,,2 B,,2 C,2 A,,2 | %21
 E,2 ^F,2 G,2 G,,2 | C,2 B,,C, [D,A,]4 | [G,,G,]8 |] %24
V:4
 x12 | x12 | x12 | x12 |[M:4/4] x8 | x8 | x8 | x8 | x8 | x8 | x8 ::[M:3/4] x6 | x6 | x6 | %14
[M:4/4] x8 | x8 | x8 | x8 | x8 | x8 | x8 | x8 | E2 G2 ^FGAF | x8 |] %24

